images/icons/communities.svg

<svg width="48" height="48" viewBox="0 0 48 48" fill="none" xmlns="http://www.w3.org/2000/svg">
<path d="M0 36V33.35C0 32.05 0.691667 31 2.075 30.2C3.45833 29.4 5.26667 29 7.5 29C7.9 29 8.29167 29.0083 8.675 29.025C9.05833 29.0417 9.43333 29.0833 9.8 29.15C9.53333 29.7167 9.33333 30.3 9.2 30.9C9.06667 31.5 9 32.1333 9 32.8V36H0ZM12 36V32.8C12 30.6333 13.1083 28.875 15.325 27.525C17.5417 26.175 20.4333 25.5 24 25.5C27.6 25.5 30.5 26.175 32.7 27.525C34.9 28.875 36 30.6333 36 32.8V36H12ZM39 36V32.8C39 32.1333 38.9333 31.5 38.8 30.9C38.6667 30.3 38.4667 29.7167 38.2 29.15C38.5667 29.0833 38.9417 29.0417 39.325 29.025C39.7083 29.0083 40.1 29 40.5 29C42.7333 29 44.5417 29.4 45.925 30.2C47.3083 31 48 32.05 48 33.35V36H39ZM7.5 27.5C6.53333 27.5 5.70833 27.1583 5.025 26.475C4.34167 25.7917 4 24.9667 4 24C4 23.0333 4.34167 22.2083 5.025 21.525C5.70833 20.8417 6.53333 20.5 7.5 20.5C8.46667 20.5 9.29167 20.8417 9.975 21.525C10.6583 22.2083 11 23.0333 11 24C11 24.9667 10.6583 25.7917 9.975 26.475C9.29167 27.1583 8.46667 27.5 7.5 27.5ZM40.5 27.5C39.5333 27.5 38.7083 27.1583 38.025 26.475C37.3417 25.7917 37 24.9667 37 24C37 23.0333 37.3417 22.2083 38.025 21.525C38.7083 20.8417 39.5333 20.5 40.5 20.5C41.4667 20.5 42.2917 20.8417 42.975 21.525C43.6583 22.2083 44 23.0333 44 24C44 24.9667 43.6583 25.7917 42.975 26.475C42.2917 27.1583 41.4667 27.5 40.5 27.5ZM24 24C22.3333 24 20.9167 23.4167 19.75 22.25C18.5833 21.0833 18 19.6667 18 18C18 16.3333 18.5833 14.9167 19.75 13.75C20.9167 12.5833 22.3333 12 24 12C25.6667 12 27.0833 12.5833 28.25 13.75C29.4167 14.9167 30 16.3333 30 18C30 19.6667 29.4167 21.0833 28.25 22.25C27.0833 23.4167 25.6667 24 24 24Z" fill="#CDCDCD"/>
</svg>

<svg xmlns="http://www.w3.org/2000/svg" height="48" width="48"><path d="M0 36v-2.65q0-1.95 2.075-3.15T7.5 29q.6 0 1.175.025.575.025 1.125.125-.4.85-.6 1.75-.2.9-.2 1.9V36Zm12 0v-3.2q0-3.25 3.325-5.275Q18.65 25.5 24 25.5q5.4 0 8.7 2.025Q36 29.55 36 32.8V36Zm27 0v-3.2q0-1-.2-1.9-.2-.9-.6-1.75.55-.1 1.125-.125Q39.9 29 40.5 29q3.35 0 5.425 1.2Q48 31.4 48 33.35V36ZM7.5 27.5q-1.45 0-2.475-1.025Q4 25.45 4 24q0-1.45 1.025-2.475Q6.05 20.5 7.5 20.5q1.45 0 2.475 1.025Q11 22.55 11 24q0 1.45-1.025 2.475Q8.95 27.5 7.5 27.5Zm33 0q-1.45 0-2.475-1.025Q37 25.45 37 24q0-1.45 1.025-2.475Q39.05 20.5 40.5 20.5q1.45 0 2.475 1.025Q44 22.55 44 24q0 1.45-1.025 2.475Q41.95 27.5 40.5 27.5ZM24 24q-2.5 0-4.25-1.75T18 18q0-2.5 1.75-4.25T24 12q2.5 0 4.25 1.75T30 18q0 2.5-1.75 4.25T24 24Z"/></svg>
